icons/glasses.svg

<?xml version="1.0" standalone="no"?><!-- Generator: Gravit.io --><svg xmlns="http://www.w3.org/2000/svg" xmlns:xlink="http://www.w3.org/1999/xlink" width="96" height="96"><path d=" M 4.2473195676 40.989146728745 L 0.3 31.120847809755 C -0.1 30.120847809755 -0.1 29.020847809754997 0.3 28.020847809754997 C 0.7 27.020847809754997 1.5 26.320847809754998 2.5 25.920847809755 C 3.5 25.520847809754997 4.6 25.520847809754997 5.6 25.920847809755 C 6.6 26.320847809754998 7.3 27.120847809755 7.7 28.120847809755 L 10.22148923254 34.424570891095 C 10.949333445458864 34.22361813755183 11.704705070679514 34.120847809755 12.4600766959 34.120847809755 L 36.63227961623 34.120847809755 C 38.747347371753804 34.120847809755 40.76169761511415 34.92658790709914 42.27246029763 36.437350589614994 C 43.11201279731696 37.17195902684163 43.760206336526174 38.070589430183844 44.20279882775 39.062031362135 L 44.20279882775 39.062031362135 L 44.9 38.720847809755 Q 46.75972522845003 38.020847809755 48 38.020847809755 Q 49.24027477154997 38.020847809755 51.1 38.720847809755 L 52.19064988684 39.254570094805 C 52.60635451029715 37.981668084299486 53.335114465525926 36.824309435548116 54.32103363687 35.838390264205 C 55.93379178555886 34.42722688410124 57.94973947142446 33.620847809755 60.06648454158 33.620847809755 L 84.25785677197 33.620847809755 C 84.85703213827861 33.620847809755 85.44813106314818 33.685459341263666 86.02429508522 33.810110096705 L 88.3 28.120847809755 C 88.7 27.120847809755 89.4 26.320847809754998 90.4 25.920847809755 C 91.4 25.520847809754997 92.5 25.520847809754997 93.5 25.920847809755 C 94.5 26.320847809754998 95.3 27.020847809754997 95.7 28.020847809754997 C 96.1 29.020847809754997 96.1 30.120847809755 95.7 31.120847809755 L 92.26637052137 39.704921506325 C 92.40887122915395 40.2464370166132 92.49584458643258 40.8068947510139 92.52324228402 41.382246400335 C 92.82563443689926 45.41414177206874 92.62403966831269 49.34523975950665 92.01925536255 53.276337746944996 C 91.51526844108662 55.89706973856983 90.60809198244709 58.51780173019511 89.29772598663 60.936938953235 C 87.684967837942 63.65846832915237 85.26583061490328 65.97680816789781 82.44350385469 67.387971548005 C 79.21798755730649 69.10152708098948 75.6900791070417 69.90790615533572 72.16217065678 69.907906155335 C 68.63426220651212 69.90790615533572 65.10635375624733 69.10152708098948 61.88083745886 67.48876893229499 C 59.05851069865054 65.97680816789781 56.740170859905106 63.75926571344565 55.12741271121 60.936938953235 C 53.71624933110671 58.61859911448838 52.80907287246718 55.99786712286311 52.305085951 53.276337746944996 C 52.027151684331486 51.4697650135971 51.83436894011811 49.6631922802493 51.73652076238 47.846836502875 Q 49.6369281374029 46.220847809755 48 46.220847809755 Q 46.65247252148027 46.220847809755 44.99141280812 47.322725914654995 C 44.906859650337026 49.46873817061051 44.67199222796085 51.61475042656444 44.28681054099 53.760762682515 C 43.883940492322694 56.48013551105485 42.977482882810534 59.098790827423294 41.56743771246 61.415293607285 C 39.95595751777002 64.23538394799218 37.639454737905616 66.45116921568857 34.8193643972 67.961931898205 C 31.59640400782457 69.5734120928971 28.071291081943965 70.37915219024123 24.54617815606 70.37915219024501 C 20.92034771801474 70.37915219024123 17.495952304302147 69.5734120928971 14.27299191493 67.961931898205 C 11.452901574221112 66.45116921568857 9.035681282188694 64.23538394799218 7.4242010875 61.516011119455 C 6.114873429316192 59.098790827423294 5.107698307636019 56.48013551105485 4.70482825896 53.760762682515 C 4.100523185955845 49.832779707965706 3.899088161619811 45.90479673341303 4.10052318596 41.976813758865 C 4.13217658463389 41.644453072781566 4.181238980468791 41.314579386292664 4.2473195676 40.989146728745 Z  M 59.7640923887 41.886233321805 L 84.56024892485 41.886233321805 C 84.76184369343687 45.31334438777546 84.56024892485033 48.63965806945369 84.05626200338 51.965971751135 C 83.75386985050409 53.679527284117675 83.1490855447444 55.39308281710343 82.2419090861 56.905043581505 C 81.43553001175866 58.31620696160854 80.2259614002393 59.52577557312791 78.71400063584 60.231357263185 C 76.69805294997451 61.34012849040694 74.48051049552234 61.84411541187334 72.16217065678 61.844115411875 C 69.84383081803148 61.84411541187334 67.6262883635793 61.34012849040694 65.61034067771 60.231357263185 C 64.09837991331452 59.52577557312791 62.888811301795165 58.31620696160854 62.08243222745 56.905043581505 C 61.175255768809414 55.39308281710343 60.570471463049735 53.780324668410955 60.26807931017 51.965971751135 C 59.764092388703496 48.63965806945369 59.562497620116936 45.31334438777546 59.7640923887 41.886233321805 L 59.7640923887 41.886233321805 Z  M 12.1579241594 42.480401319704995 L 36.83371464056 42.480401319704995 C 37.03514966489751 45.80407922124501 36.9344321527295 49.12775712278958 36.33012707972 52.451435024335 C 36.12869205538536 54.16363273119045 35.52438698237725 55.87583043804674 34.61792937287 57.386593120564996 C 33.81218927552096 58.79663829091924 32.60357912950475 60.00524843693545 31.09281644698 60.710271022115 C 29.07846620362414 61.818163655959765 26.76196342375974 62.321751216799846 24.54617815606 62.321751216795 C 22.229675376198966 62.321751216799846 20.01389010850258 61.818163655959765 17.89882235297 60.810988534275 C 16.488777182621973 60.00524843693545 15.280167036605768 58.897355803087265 14.37370942709 57.487310632734996 C 13.567969329749474 55.87583043804674 12.963664256741371 54.264350243358464 12.66151172024 52.552152536505 C 12.157924159397233 49.2284746349576 11.956489135061197 45.80407922124501 12.1579241594 42.480401319704995 L 12.1579241594 42.480401319704995 Z " fill-rule="evenodd" fill="#454545" stroke="none"/><mask id="_mask_SXHF6ntHho0OFNbx78pY138K0hRcJKz4"><path d=" M 4.2473195676 40.989146728745 L 0.3 31.120847809755 C -0.1 30.120847809755 -0.1 29.020847809754997 0.3 28.020847809754997 C 0.7 27.020847809754997 1.5 26.320847809754998 2.5 25.920847809755 C 3.5 25.520847809754997 4.6 25.520847809754997 5.6 25.920847809755 C 6.6 26.320847809754998 7.3 27.120847809755 7.7 28.120847809755 L 10.22148923254 34.424570891095 C 10.949333445458864 34.22361813755183 11.704705070679514 34.120847809755 12.4600766959 34.120847809755 L 36.63227961623 34.120847809755 C 38.747347371753804 34.120847809755 40.76169761511415 34.92658790709914 42.27246029763 36.437350589614994 C 43.11201279731696 37.17195902684163 43.760206336526174 38.070589430183844 44.20279882775 39.062031362135 L 44.20279882775 39.062031362135 L 44.9 38.720847809755 Q 46.75972522845003 38.020847809755 48 38.020847809755 Q 49.24027477154997 38.020847809755 51.1 38.720847809755 L 52.19064988684 39.254570094805 C 52.60635451029715 37.981668084299486 53.335114465525926 36.824309435548116 54.32103363687 35.838390264205 C 55.93379178555886 34.42722688410124 57.94973947142446 33.620847809755 60.06648454158 33.620847809755 L 84.25785677197 33.620847809755 C 84.85703213827861 33.620847809755 85.44813106314818 33.685459341263666 86.02429508522 33.810110096705 L 88.3 28.120847809755 C 88.7 27.120847809755 89.4 26.320847809754998 90.4 25.920847809755 C 91.4 25.520847809754997 92.5 25.520847809754997 93.5 25.920847809755 C 94.5 26.320847809754998 95.3 27.020847809754997 95.7 28.020847809754997 C 96.1 29.020847809754997 96.1 30.120847809755 95.7 31.120847809755 L 92.26637052137 39.704921506325 C 92.40887122915395 40.2464370166132 92.49584458643258 40.8068947510139 92.52324228402 41.382246400335 C 92.82563443689926 45.41414177206874 92.62403966831269 49.34523975950665 92.01925536255 53.276337746944996 C 91.51526844108662 55.89706973856983 90.60809198244709 58.51780173019511 89.29772598663 60.936938953235 C 87.684967837942 63.65846832915237 85.26583061490328 65.97680816789781 82.44350385469 67.387971548005 C 79.21798755730649 69.10152708098948 75.6900791070417 69.90790615533572 72.16217065678 69.907906155335 C 68.63426220651212 69.90790615533572 65.10635375624733 69.10152708098948 61.88083745886 67.48876893229499 C 59.05851069865054 65.97680816789781 56.740170859905106 63.75926571344565 55.12741271121 60.936938953235 C 53.71624933110671 58.61859911448838 52.80907287246718 55.99786712286311 52.305085951 53.276337746944996 C 52.027151684331486 51.4697650135971 51.83436894011811 49.6631922802493 51.73652076238 47.846836502875 Q 49.6369281374029 46.220847809755 48 46.220847809755 Q 46.65247252148027 46.220847809755 44.99141280812 47.322725914654995 C 44.906859650337026 49.46873817061051 44.67199222796085 51.61475042656444 44.28681054099 53.760762682515 C 43.883940492322694 56.48013551105485 42.977482882810534 59.098790827423294 41.56743771246 61.415293607285 C 39.95595751777002 64.23538394799218 37.639454737905616 66.45116921568857 34.8193643972 67.961931898205 C 31.59640400782457 69.5734120928971 28.071291081943965 70.37915219024123 24.54617815606 70.37915219024501 C 20.92034771801474 70.37915219024123 17.495952304302147 69.5734120928971 14.27299191493 67.961931898205 C 11.452901574221112 66.45116921568857 9.035681282188694 64.23538394799218 7.4242010875 61.516011119455 C 6.114873429316192 59.098790827423294 5.107698307636019 56.48013551105485 4.70482825896 53.760762682515 C 4.100523185955845 49.832779707965706 3.899088161619811 45.90479673341303 4.10052318596 41.976813758865 C 4.13217658463389 41.644453072781566 4.181238980468791 41.314579386292664 4.2473195676 40.989146728745 Z  M 59.7640923887 41.886233321805 L 84.56024892485 41.886233321805 C 84.76184369343687 45.31334438777546 84.56024892485033 48.63965806945369 84.05626200338 51.965971751135 C 83.75386985050409 53.679527284117675 83.1490855447444 55.39308281710343 82.2419090861 56.905043581505 C 81.43553001175866 58.31620696160854 80.2259614002393 59.52577557312791 78.71400063584 60.231357263185 C 76.69805294997451 61.34012849040694 74.48051049552234 61.84411541187334 72.16217065678 61.844115411875 C 69.84383081803148 61.84411541187334 67.6262883635793 61.34012849040694 65.61034067771 60.231357263185 C 64.09837991331452 59.52577557312791 62.888811301795165 58.31620696160854 62.08243222745 56.905043581505 C 61.175255768809414 55.39308281710343 60.570471463049735 53.780324668410955 60.26807931017 51.965971751135 C 59.764092388703496 48.63965806945369 59.562497620116936 45.31334438777546 59.7640923887 41.886233321805 L 59.7640923887 41.886233321805 Z  M 12.1579241594 42.480401319704995 L 36.83371464056 42.480401319704995 C 37.03514966489751 45.80407922124501 36.9344321527295 49.12775712278958 36.33012707972 52.451435024335 C 36.12869205538536 54.16363273119045 35.52438698237725 55.87583043804674 34.61792937287 57.386593120564996 C 33.81218927552096 58.79663829091924 32.60357912950475 60.00524843693545 31.09281644698 60.710271022115 C 29.07846620362414 61.818163655959765 26.76196342375974 62.321751216799846 24.54617815606 62.321751216795 C 22.229675376198966 62.321751216799846 20.01389010850258 61.818163655959765 17.89882235297 60.810988534275 C 16.488777182621973 60.00524843693545 15.280167036605768 58.897355803087265 14.37370942709 57.487310632734996 C 13.567969329749474 55.87583043804674 12.963664256741371 54.264350243358464 12.66151172024 52.552152536505 C 12.157924159397233 49.2284746349576 11.956489135061197 45.80407922124501 12.1579241594 42.480401319704995 L 12.1579241594 42.480401319704995 Z " fill-rule="evenodd" fill="white" stroke="none"/></mask><path d=" M 4.2473195676 40.989146728745 L 0.3 31.120847809755 C -0.1 30.120847809755 -0.1 29.020847809754997 0.3 28.020847809754997 C 0.7 27.020847809754997 1.5 26.320847809754998 2.5 25.920847809755 C 3.5 25.520847809754997 4.6 25.520847809754997 5.6 25.920847809755 C 6.6 26.320847809754998 7.3 27.120847809755 7.7 28.120847809755 L 10.22148923254 34.424570891095 C 10.949333445458864 34.22361813755183 11.704705070679514 34.120847809755 12.4600766959 34.120847809755 L 36.63227961623 34.120847809755 C 38.747347371753804 34.120847809755 40.76169761511415 34.92658790709914 42.27246029763 36.437350589614994 C 43.11201279731696 37.17195902684163 43.760206336526174 38.070589430183844 44.20279882775 39.062031362135 L 44.20279882775 39.062031362135 L 44.9 38.720847809755 Q 46.75972522845003 38.020847809755 48 38.020847809755 Q 49.24027477154997 38.020847809755 51.1 38.720847809755 L 52.19064988684 39.254570094805 C 52.60635451029715 37.981668084299486 53.335114465525926 36.824309435548116 54.32103363687 35.838390264205 C 55.93379178555886 34.42722688410124 57.94973947142446 33.620847809755 60.06648454158 33.620847809755 L 84.25785677197 33.620847809755 C 84.85703213827861 33.620847809755 85.44813106314818 33.685459341263666 86.02429508522 33.810110096705 L 88.3 28.120847809755 C 88.7 27.120847809755 89.4 26.320847809754998 90.4 25.920847809755 C 91.4 25.520847809754997 92.5 25.520847809754997 93.5 25.920847809755 C 94.5 26.320847809754998 95.3 27.020847809754997 95.7 28.020847809754997 C 96.1 29.020847809754997 96.1 30.120847809755 95.7 31.120847809755 L 92.26637052137 39.704921506325 C 92.40887122915395 40.2464370166132 92.49584458643258 40.8068947510139 92.52324228402 41.382246400335 C 92.82563443689926 45.41414177206874 92.62403966831269 49.34523975950665 92.01925536255 53.276337746944996 C 91.51526844108662 55.89706973856983 90.60809198244709 58.51780173019511 89.29772598663 60.936938953235 C 87.684967837942 63.65846832915237 85.26583061490328 65.97680816789781 82.44350385469 67.387971548005 C 79.21798755730649 69.10152708098948 75.6900791070417 69.90790615533572 72.16217065678 69.907906155335 C 68.63426220651212 69.90790615533572 65.10635375624733 69.10152708098948 61.88083745886 67.48876893229499 C 59.05851069865054 65.97680816789781 56.740170859905106 63.75926571344565 55.12741271121 60.936938953235 C 53.71624933110671 58.61859911448838 52.80907287246718 55.99786712286311 52.305085951 53.276337746944996 C 52.027151684331486 51.4697650135971 51.83436894011811 49.6631922802493 51.73652076238 47.846836502875 Q 49.6369281374029 46.220847809755 48 46.220847809755 Q 46.65247252148027 46.220847809755 44.99141280812 47.322725914654995 C 44.906859650337026 49.46873817061051 44.67199222796085 51.61475042656444 44.28681054099 53.760762682515 C 43.883940492322694 56.48013551105485 42.977482882810534 59.098790827423294 41.56743771246 61.415293607285 C 39.95595751777002 64.23538394799218 37.639454737905616 66.45116921568857 34.8193643972 67.961931898205 C 31.59640400782457 69.5734120928971 28.071291081943965 70.37915219024123 24.54617815606 70.37915219024501 C 20.92034771801474 70.37915219024123 17.495952304302147 69.5734120928971 14.27299191493 67.961931898205 C 11.452901574221112 66.45116921568857 9.035681282188694 64.23538394799218 7.4242010875 61.516011119455 C 6.114873429316192 59.098790827423294 5.107698307636019 56.48013551105485 4.70482825896 53.760762682515 C 4.100523185955845 49.832779707965706 3.899088161619811 45.90479673341303 4.10052318596 41.976813758865 C 4.13217658463389 41.644453072781566 4.181238980468791 41.314579386292664 4.2473195676 40.989146728745 Z  M 59.7640923887 41.886233321805 L 84.56024892485 41.886233321805 C 84.76184369343687 45.31334438777546 84.56024892485033 48.63965806945369 84.05626200338 51.965971751135 C 83.75386985050409 53.679527284117675 83.1490855447444 55.39308281710343 82.2419090861 56.905043581505 C 81.43553001175866 58.31620696160854 80.2259614002393 59.52577557312791 78.71400063584 60.231357263185 C 76.69805294997451 61.34012849040694 74.48051049552234 61.84411541187334 72.16217065678 61.844115411875 C 69.84383081803148 61.84411541187334 67.6262883635793 61.34012849040694 65.61034067771 60.231357263185 C 64.09837991331452 59.52577557312791 62.888811301795165 58.31620696160854 62.08243222745 56.905043581505 C 61.175255768809414 55.39308281710343 60.570471463049735 53.780324668410955 60.26807931017 51.965971751135 C 59.764092388703496 48.63965806945369 59.562497620116936 45.31334438777546 59.7640923887 41.886233321805 L 59.7640923887 41.886233321805 Z  M 12.1579241594 42.480401319704995 L 36.83371464056 42.480401319704995 C 37.03514966489751 45.80407922124501 36.9344321527295 49.12775712278958 36.33012707972 52.451435024335 C 36.12869205538536 54.16363273119045 35.52438698237725 55.87583043804674 34.61792937287 57.386593120564996 C 33.81218927552096 58.79663829091924 32.60357912950475 60.00524843693545 31.09281644698 60.710271022115 C 29.07846620362414 61.818163655959765 26.76196342375974 62.321751216799846 24.54617815606 62.321751216795 C 22.229675376198966 62.321751216799846 20.01389010850258 61.818163655959765 17.89882235297 60.810988534275 C 16.488777182621973 60.00524843693545 15.280167036605768 58.897355803087265 14.37370942709 57.487310632734996 C 13.567969329749474 55.87583043804674 12.963664256741371 54.264350243358464 12.66151172024 52.552152536505 C 12.157924159397233 49.2284746349576 11.956489135061197 45.80407922124501 12.1579241594 42.480401319704995 L 12.1579241594 42.480401319704995 Z " fill-rule="evenodd" fill="none" stroke="none" stroke-width="16" mask="url(#_mask_SXHF6ntHho0OFNbx78pY138K0hRcJKz4)"/></svg>

<svg xmlns="http://www.w3.org/2000/svg" width="96" height="96"><path d="M4.247 40.99L.3 31.12c-.4-1-.4-2.1 0-3.1s1.2-1.7 2.2-2.1c1-.4 2.1-.4 3.1 0s1.7 1.2 2.1 2.2l2.521 6.305a8.425 8.425 0 0 1 2.24-.304h24.171c2.115 0 4.13.806 5.64 2.316a7.585 7.585 0 0 1 1.93 2.625l.698-.341q1.86-.7 3.1-.7t3.1.7l1.09.534c.416-1.273 1.145-2.43 2.131-3.417 1.613-1.41 3.629-2.217 5.745-2.217h24.192c.599 0 1.19.064 1.766.19l2.276-5.69c.4-1 1.1-1.8 2.1-2.2 1-.4 2.1-.4 3.1 0s1.8 1.1 2.2 2.1c.4 1 .4 2.1 0 3.1l-3.434 8.584c.143.541.23 1.102.257 1.677.303 4.032.101 7.963-.504 11.894a26.782 26.782 0 0 1-2.721 7.66c-1.613 2.722-4.032 5.04-6.854 6.452-3.226 1.714-6.754 2.52-10.282 2.52-3.528 0-7.056-.806-10.281-2.42a16.888 16.888 0 0 1-6.754-6.551c-1.41-2.318-2.318-4.94-2.822-7.66a55.185 55.185 0 0 1-.568-5.43Q49.637 46.22 48 46.22q-1.348 0-3.009 1.102a46.84 46.84 0 0 1-.704 6.438c-.403 2.72-1.31 5.338-2.72 7.654a16.875 16.875 0 0 1-6.748 6.547 22.975 22.975 0 0 1-10.273 2.417c-3.626 0-7.05-.806-10.273-2.417-2.82-1.51-5.237-3.727-6.849-6.446-1.31-2.417-2.316-5.036-2.72-7.755a57.824 57.824 0 0 1-.603-11.784c.031-.333.08-.662.146-.988zm55.517.896H84.56c.202 3.427 0 6.754-.504 10.08-.302 1.714-.907 3.427-1.814 4.939-.806 1.411-2.016 2.62-3.528 3.326-2.016 1.11-4.233 1.613-6.552 1.613-2.318 0-4.536-.504-6.552-1.613-1.512-.705-2.721-1.915-3.528-3.326a13.858 13.858 0 0 1-1.814-4.939c-.504-3.326-.706-6.653-.504-10.08zm-47.606.594h24.676c.201 3.324.1 6.648-.504 9.971-.201 1.713-.806 3.425-1.712 4.936-.806 1.41-2.014 2.618-3.525 3.323-2.015 1.108-4.331 1.612-6.547 1.612-2.316 0-4.532-.504-6.647-1.511a10.112 10.112 0 0 1-3.525-3.324c-.806-1.611-1.41-3.223-1.712-4.935-.504-3.324-.706-6.748-.504-10.072z" fill-rule="evenodd" fill="#454545"/></svg>
